_site/images/features/secure-vaults.svg

<svg height="40" viewBox="0 0 40 40" width="40" xmlns="http://www.w3.org/2000/svg"><g fill="none" fill-rule="evenodd"><rect fill="#eb8b30" height="40" rx="7" width="40"/><g fill="#fff" fill-rule="nonzero" stroke="#fff" transform="translate(9 8)"><path d="m10.1609614 19.5923438c0 .0166875-.0033503.0330937-.0097754.0477656-.0068841.0156094-.0166594.0295312-.0283164.0402187-.15144931.1384688-.28550487.295875-.39840342.4678125-.10564734.1607344-.06360869.3784688.09376087.4863282.05869807.0402187.12515218.0594843.19087195.0594843.110558 0 .2190967-.0544687.2852754-.15525.0811401-.1234687.177471-.2365781.2863309-.3361406.0839855-.0768281.1502102-.1695937.1967005-.2754844.045756-.1040625.069942-.2197968.069942-.3347343 0-.4528125-.3606328-.8211563-.8039203-.8211563h-4.49726325c-.20978019 0-.38041304-.1743281-.38041304-.3885469v-4.5634687c0-.2274375-.08655556-.4410938-.24374155-.6016406-.15746135-.1608282-.3668285-.2494219-.58950483-.2494219-.2345628 0-.46013043.1025625-.61878502.2813437-.32901208.3703594-.79790822.5827969-1.28649276.5827969-.48844686 0-.94063768-.2014687-1.27313768-.5672344-.33227053-.3654375-.49514734-.8424375-.45879951-1.3429218.06379227-.8732813.75729227-1.5753282 1.61302657-1.6330782.53516666-.0360468 1.04734057.175125 1.4052198.5786719.07788164.088125.17145894.1577344.27894203.2073281.14525362.0666094.30606522.0889219.46485749.0647344.40381884-.0615937.70836956-.4302656.70836956-.8576719v-4.54734372c0-.21426563.17063285-.38854688.38041305-.38854688h4.46793724c.459442 0 .8332463-.38179687.8332463-.8510625v-.07429687c0-.23882813-.1002319-.46903125-.2755918-.63225-.3625144-.33553125-.5704589-.81440625-.5704589-1.3138125 0-.49898438.1972971-.96084375.5554517-1.30040625.3578333-.33923438.824756-.50540625 1.3148551-.46809375.8548623.06473437 1.5421666.77310937 1.5987995 1.6475625.0352005.546375-.1714589 1.06964062-.5671087 1.43573437-.1748551.16195313-.2751329.39201563-.2751329.63121875v.07429688c0 .46926562.3738044.8510625.8332464.8510625h1.0733623c.1895411 0 .3431933-.1569375.3431933-.35053125s-.1536063-.35053125-.3431933-.35053125h-1.0733623c-.0809565 0-.1468599-.0673125-.1468599-.15v-.07429688c0-.04176562.018128-.08254687.0497029-.11179687.5517802-.5105625.8401304-1.23998438.7910242-2.00132813-.0789831-1.22109375-1.0389421-2.21010937-2.2327295-2.30048437-.6824855-.05217188-1.3333961.18-1.8326739.65334375-.49248552.466875-.77491547 1.12814062-.77491547 1.81420312 0 .69689063.2900942 1.36509375.79524637 1.83267188.0323092.03004687.0508044.07134375.0508044.11339062v.07429688c0 .08273437-.0659034.15-.14686.15h-4.46793715c-.58821981 0-1.06675362.48876562-1.06675362 1.0895625v4.54734377c0 .0815625-.05420049.15375-.12345411.1643437-.02909662.0044532-.05686232.00075-.08164493-.0105937-.01991787-.0091875-.0372198-.0219375-.05163043-.0382969-.4998285-.56357812-1.21375121-.85795312-1.95943237-.80798437-1.19498067.080625-2.16329227 1.06106247-2.25232608 2.28060937-.05066667.6972188.17669082 1.362.64026328 1.8719531.45710145.502875 1.10447826.79125 1.77608696.79125.6817512 0 1.33592029-.29625 1.79485748-.8128593.02895894-.032625.06920773-.0512813.11042029-.0512813.05309904 0 .08807005.0276563.10417875.0441094.01597101.0162656.04268116.0517031.04268116.1059375v4.5634687c0 .6007969.47853381 1.0895625 1.06675362 1.0895625h4.49726325c.064802 0 .1175339.0538594.1175339.1201407z"/><path d="m18.158401 9.38334375c.4854178-.10682812.837698-.55420313.837698-1.06382812v-2.58482813c0-.60079688-.4785338-1.0895625-1.0667536-1.0895625h-1.7978406c-.189541 0-.3431932.1569375-.3431932.35053125s.1536063.35053125.3431932.35053125h1.7978406c.2097343 0 .3804131.17428125.3804131.38854687v2.58482813c0 .18159375-.1244638.34078125-.2959228.3785625-1.3806207.30379687-2.3826642 1.5727031-2.3826642 3.0171094 0 1.4442656 1.0020435 2.7129375 2.3826642 3.0166875.1715049.0377343.2959228.1969218.2959228.3785156v3.27225c0 .2142656-.1706329.3885469-.3804131.3885469h-4.4972174c-.2146449 0-.4165314.0854062-.5684396.2405156-.1518623.1551094-.2355266.3613125-.2355266.5806406 0 .2326875.0974783.4553906.2675145.6111094.3676546.3363281.5785363.8179219.5785363 1.3213594 0 .4919062-.202529.9660937-.5557271 1.300875-.3577415.3391875-.8242053.5052656-1.314442.4680468-.7740894-.0590156-1.4198599-.645-1.5703913-1.4249999-.03657732-.1899376-.21703143-.3136407-.40303867-.2761407-.18591546.0374063-.3069831.2217188-.27035991.4116563.20996377 1.0884843 1.11163768 1.9062187 2.19271018 1.9885781.0629662.0048281.1255652.0071719.187843.0071719.6132318 0 1.191355-.2308594 1.6446014-.6605156.4925773-.4670157.7751449-1.1284219.7751449-1.8146719 0-.7024688-.2941328-1.3744219-.8068116-1.8434063-.0249202-.0228281-.0392391-.0553125-.0392391-.0890625 0-.0432656.0215701-.0717656.0344662-.0848906.0128502-.0131719.0408454-.03525.0831594-.03525h4.4972174c.5882198 0 1.0667536-.4887656 1.0667536-1.0895625v-3.27225c0-.509625-.3523261-.9570469-.8377898-1.063875-1.0666619-.2346563-1.8407971-1.2151406-1.8407971-2.331375 0-1.1164219.7741811-2.09709375 1.8408889-2.33184375z"/></g></g></svg>

<?xml version="1.0" encoding="UTF-8"?>
<svg width="40px" height="40px" viewBox="0 0 40 40" version="1.1" xmlns="http://www.w3.org/2000/svg" xmlns:xlink="http://www.w3.org/1999/xlink">
    <!-- Generator: Sketch 52.6 (67491) - http://www.bohemiancoding.com/sketch -->
    <title>Group 57</title>
    <desc>Created with Sketch.</desc>
    <g id="Website" stroke="none" stroke-width="1" fill="none" fill-rule="evenodd">
        <g id="6--Pricing" transform="translate(-1025.000000, -1330.000000)">
            <g id="Group-57" transform="translate(1025.000000, 1330.000000)">
                <rect id="Rectangle" fill="#EB8B30" x="0" y="0" width="40" height="40" rx="7"></rect>
                <g id="strategy" transform="translate(9.000000, 8.000000)" fill="#FFFFFF" fill-rule="nonzero" stroke="#FFFFFF">
                    <path d="M10.1609614,19.5923438 C10.1609614,19.6090313 10.1576111,19.6254375 10.151186,19.6401094 C10.1443019,19.6557188 10.1345266,19.6696406 10.1228696,19.6803281 C9.97142029,19.8187969 9.83736473,19.9762031 9.72446618,20.1481406 C9.61881884,20.308875 9.66085749,20.5266094 9.81822705,20.6344688 C9.87692512,20.6746875 9.94337923,20.6939531 10.009099,20.6939531 C10.119657,20.6939531 10.2281957,20.6394844 10.2943744,20.5387031 C10.3755145,20.4152344 10.4718454,20.302125 10.5807053,20.2025625 C10.6646908,20.1257344 10.7309155,20.0329688 10.7774058,19.9270781 C10.8231618,19.8230156 10.8473478,19.7072813 10.8473478,19.5923438 C10.8473478,19.1395313 10.486715,18.7711875 10.0434275,18.7711875 L5.54616425,18.7711875 C5.33638406,18.7711875 5.16575121,18.5968594 5.16575121,18.3826406 L5.16575121,13.8191719 C5.16575121,13.5917344 5.07919565,13.3780781 4.92200966,13.2175313 C4.76454831,13.0567031 4.55518116,12.9681094 4.33250483,12.9681094 C4.09794203,12.9681094 3.8723744,13.0706719 3.71371981,13.2494531 C3.38470773,13.6198125 2.91581159,13.83225 2.42722705,13.83225 C1.93878019,13.83225 1.48658937,13.6307813 1.15408937,13.2650156 C0.821818841,12.8995781 0.658942029,12.4225781 0.695289855,11.9220938 C0.759082126,11.0488125 1.45258213,10.3467656 2.30831643,10.2890156 C2.84348309,10.2529688 3.355657,10.4641406 3.71353623,10.8676875 C3.79141787,10.9558125 3.88499517,11.0254219 3.99247826,11.0750156 C4.13773188,11.141625 4.29854348,11.1639375 4.45733575,11.13975 C4.86115459,11.0781563 5.16570531,10.7094844 5.16570531,10.2820781 L5.16570531,5.73473438 C5.16570531,5.52046875 5.33633816,5.3461875 5.54611836,5.3461875 L10.0140556,5.3461875 C10.4734976,5.3461875 10.8473019,4.96439063 10.8473019,4.495125 L10.8473019,4.42082813 C10.8473019,4.182 10.74707,3.95179688 10.5717101,3.78857813 C10.2091957,3.45304688 10.0012512,2.97417188 10.0012512,2.47476563 C10.0012512,1.97578125 10.1985483,1.51392188 10.5567029,1.17435938 C10.9145362,0.835125 11.3814589,0.668953125 11.871558,0.706265625 C12.7264203,0.771 13.4137246,1.479375 13.4703575,2.35382813 C13.505558,2.90020313 13.2988986,3.42346875 12.9032488,3.7895625 C12.7283937,3.95151563 12.6281159,4.18157813 12.6281159,4.42078125 L12.6281159,4.49507813 C12.6281159,4.96434375 13.0019203,5.34614063 13.4613623,5.34614063 L14.5347246,5.34614063 C14.7242657,5.34614063 14.8779179,5.18920313 14.8779179,4.99560938 C14.8779179,4.80201563 14.7243116,4.64507813 14.5347246,4.64507813 L13.4613623,4.64507813 C13.3804058,4.64507813 13.3145024,4.57776563 13.3145024,4.49507813 L13.3145024,4.42078125 C13.3145024,4.37901563 13.3326304,4.33823438 13.3642053,4.30898438 C13.9159855,3.79842188 14.2043357,3.069 14.1552295,2.30765625 C14.0762464,1.0865625 13.1162874,0.097546875 11.9225,0.007171875 C11.2400145,-0.045 10.5891039,0.187171875 10.0898261,0.660515625 C9.59734058,1.12739063 9.31491063,1.78865625 9.31491063,2.47471875 C9.31491063,3.17160938 9.60500483,3.8398125 10.110157,4.30739063 C10.1424662,4.3374375 10.1609614,4.37873438 10.1609614,4.42078125 L10.1609614,4.49507813 C10.1609614,4.5778125 10.095058,4.64507813 10.0141014,4.64507813 L5.54616425,4.64507813 C4.95794444,4.64507813 4.47941063,5.13384375 4.47941063,5.73464063 L4.47941063,10.2819844 C4.47941063,10.3635469 4.42521014,10.4357344 4.35595652,10.4463281 C4.3268599,10.4507813 4.2990942,10.4470781 4.27431159,10.4357344 C4.25439372,10.4265469 4.23709179,10.4137969 4.22268116,10.3974375 C3.72285266,9.83385938 3.00892995,9.53948438 2.26324879,9.58945313 C1.06826812,9.67007813 0.0999565217,10.6505156 0.0109227053,11.8700625 C-0.0397439614,12.5672813 0.187613527,13.2320625 0.65118599,13.7420156 C1.10828744,14.2448906 1.75566425,14.5332656 2.42727295,14.5332656 C3.10902415,14.5332656 3.76319324,14.2370156 4.22213043,13.7204063 C4.25108937,13.6877813 4.29133816,13.669125 4.33255072,13.669125 C4.38564976,13.669125 4.42062077,13.6967813 4.43672947,13.7132344 C4.45270048,13.7295 4.47941063,13.7649375 4.47941063,13.8191719 L4.47941063,18.3826406 C4.47941063,18.9834375 4.95794444,19.4722031 5.54616425,19.4722031 L10.0434275,19.4722031 C10.1082295,19.4722031 10.1609614,19.5260625 10.1609614,19.5923438 Z" id="Path"></path>
                    <path d="M18.158401,9.38334375 C18.6438188,9.27651563 18.996099,8.82914062 18.996099,8.31951563 L18.996099,5.7346875 C18.996099,5.13389062 18.5175652,4.645125 17.9293454,4.645125 L16.1315048,4.645125 C15.9419638,4.645125 15.7883116,4.8020625 15.7883116,4.99565625 C15.7883116,5.18925 15.9419179,5.3461875 16.1315048,5.3461875 L17.9293454,5.3461875 C18.1390797,5.3461875 18.3097585,5.52046875 18.3097585,5.73473437 L18.3097585,8.3195625 C18.3097585,8.50115625 18.1852947,8.66034375 18.0138357,8.698125 C16.633215,9.00192187 15.6311715,10.2708281 15.6311715,11.7152344 C15.6311715,13.1595 16.633215,14.4281719 18.0138357,14.7319219 C18.1853406,14.7696562 18.3097585,14.9288437 18.3097585,15.1104375 L18.3097585,18.3826875 C18.3097585,18.5969531 18.1391256,18.7712344 17.9293454,18.7712344 L13.432128,18.7712344 C13.2174831,18.7712344 13.0155966,18.8566406 12.8636884,19.01175 C12.7118261,19.1668594 12.6281618,19.3730625 12.6281618,19.5923906 C12.6281618,19.8250781 12.7256401,20.0477812 12.8956763,20.2035 C13.2633309,20.5398281 13.4742126,21.0214219 13.4742126,21.5248594 C13.4742126,22.0167656 13.2716836,22.4909531 12.9184855,22.8257344 C12.560744,23.1649219 12.0942802,23.331 11.6040435,23.2937812 C10.8299541,23.2347656 10.1841836,22.6487812 10.0336522,21.8687813 C9.99707488,21.6788437 9.81662077,21.5551406 9.63061353,21.5926406 C9.44469807,21.6300469 9.32363043,21.8143594 9.36025362,22.0042969 C9.57021739,23.0927812 10.4718913,23.9105156 11.5529638,23.992875 C11.61593,23.9977031 11.678529,24.0000469 11.7408068,24.0000469 C12.3540386,24.0000469 12.9321618,23.7691875 13.3854082,23.3395313 C13.8779855,22.8725156 14.1605531,22.2111094 14.1605531,21.5248594 C14.1605531,20.8223906 13.8664203,20.1504375 13.3537415,19.6814531 C13.3288213,19.658625 13.3145024,19.6261406 13.3145024,19.5923906 C13.3145024,19.549125 13.3360725,19.520625 13.3489686,19.5075 C13.3618188,19.4943281 13.389814,19.47225 13.432128,19.47225 L17.9293454,19.47225 C18.5175652,19.47225 18.996099,18.9834844 18.996099,18.3826875 L18.996099,15.1104375 C18.996099,14.6008125 18.6437729,14.1533906 18.1583092,14.0465625 C17.0916473,13.8119062 16.3175121,12.8314219 16.3175121,11.7151875 C16.3175121,10.5987656 17.0916932,9.61809375 18.158401,9.38334375 Z" id="Path"></path>
                </g>
            </g>
        </g>
    </g>
</svg>
